packages/ui-icons/svg/Solid/duplicate.svg

<svg viewBox="0 0 1920 1920" version="1.1" xmlns="http://www.w3.org/2000/svg">
    <path d="M1468.18348,451.760056 L1468.18348,1919.94353 L1.13686838e-13,1919.94353 L1.13686838e-13,451.760056 L1468.18348,451.760056 Z M777.202768,800 L665.202768,800 L665.202,1118.041 L333,1118.04116 L333,1230.04116 L665.202,1230.041 L665.202768,1580 L777.202768,1580 L777.202,1230.041 L1113,1230.04116 L1113,1118.04116 L777.202,1118.041 L777.202768,800 Z M1920,0 L1920,1468.29641 L1581.18843,1468.29641 L1581.18843,338.811571 L451.703587,338.811571 L451.703587,0 L1920,0 Z" stroke="none" stroke-width="1" fill-rule="evenodd"/>
</svg>

<svg viewBox="0 0 1920 1920" version="1.1" xmlns="http://www.w3.org/2000/svg">
    <path d="M451.704 0H1920v1468.296h-338.812V338.812H451.704V0zM0 1919.944V451.76h1468.183v1468.184H0zm665.203-801.903H333v112h332.203V1580h112v-349.959H1113v-112H777.203V800h-112v318.041z" stroke="none" stroke-width="1" fill-rule="evenodd"/>
</svg>
